;FLAVOR:UltiGCode
;TIME:8572
;MATERIAL:15557
;MATERIAL2:0
;NOZZLE_DIAMETER:0.4
;MINX:56.103
;MINY:61.191
;MINZ:0.27
;MAXX:163.784
;MAXY:151.434
;MAXZ:7.47
;Generated with Cura_SteamEngine 4.4.1
M82 ;absolute extrusion mode

G92 E0
G92 E0
G10
;LAYER_COUNT:37
;LAYER:0
M107
G0 F6000 X77.911 Y65.326 Z0.27
;TYPE:SKIRT
G11
G1 F1800 X78.53 Y64.713 E0.08233
G1 X79.178 Y64.138 E0.16419
G1 X79.262 Y64.063 E0.17484
G1 X79.88 Y63.565 E0.24984
G1 X80.657 Y63.067 E0.33705
G1 X81.415 Y62.642 E0.41917
G1 X81.496 Y62.596 E0.42798
G1 X82.205 Y62.239 E0.50299
G1 X83.076 Y61.915 E0.59081
G1 X83.864 Y61.673 E0.66871
G1 X83.995 Y61.632 E0.68168
G1 X84.763 Y61.434 E0.75663
G1 X85.704 Y61.299 E0.84646
G1 X86.518 Y61.232 E0.92365
G1 X86.657 Y61.22 E0.93683
G1 X87.45 Y61.191 E1.01182
G1 X88.374 Y61.257 E1.09936
G1 X89.235 Y61.37 E1.18142
G1 X89.889 Y61.484 E1.24416
G1 X90.384 Y61.592 E1.29204
G1 X90.671 Y61.66 E1.31991
G1 X112.533 Y67.295 E3.45339
G1 X112.635 Y67.322 E3.46336
G1 X113.131 Y67.457 E3.51194
G1 X113.232 Y67.485 E3.52184
G1 X135.641 Y73.904 E5.72466
G1 X135.84 Y73.965 E5.74433
G1 X157.673 Y80.85 E7.90771
G1 X157.695 Y80.857 E7.90989
G1 X157.808 Y80.893 E7.9211
G1 X158.551 Y81.171 E7.99606
G1 X159.263 Y81.523 E8.07112
G1 X159.935 Y81.945 E8.14611
G1 X160.561 Y82.432 E8.22106
G1 X161.135 Y82.98 E8.29605
G1 X161.651 Y83.583 E8.37105
G1 X162.104 Y84.234 E8.446
G1 X162.488 Y84.928 E8.52095
G1 X162.802 Y85.657 E8.59596
G1 X163.04 Y86.414 E8.67095
G1 X163.2 Y87.191 E8.74592
G1 X163.293 Y88.319 E8.85287
G1 X163.298 Y88.824 E8.9006
G1 X163.784 Y134.404 E13.20815
G1 X163.752 Y135.197 E13.28315
G1 X163.641 Y135.983 E13.35817
G1 X163.451 Y136.753 E13.43311
G1 X163.185 Y137.5 E13.50805
G1 X162.845 Y138.217 E13.58304
G1 X162.434 Y138.896 E13.65804
G1 X161.958 Y139.531 E13.73304
G1 X161.42 Y140.114 E13.808
G1 X160.825 Y140.64 E13.88305
G1 X160.181 Y141.103 E13.95801
G1 X159.494 Y141.5 E14.03299
G1 X158.77 Y141.825 E14.10798
G1 X158.14 Y142.04 E14.17089
G1 X149.287 Y144.655 E15.04323
G1 X148.899 Y144.759 E15.08119
G1 X139.212 Y147.091 E16.02277
G1 X139.064 Y147.125 E16.03712
G1 X138.574 Y147.233 E16.08453
G1 X138.3 Y147.289 E16.11096
G1 X128.864 Y149.02 E17.01754
G1 X128.461 Y149.083 E17.05609
G1 X118.532 Y150.377 E18.00231
G1 X118.114 Y150.42 E18.04202
G1 X108.139 Y151.182 E18.98741
G1 X107.93 Y151.195 E19.0072
G1 X107.427 Y151.22 E19.05479
G1 X107.205 Y151.228 E19.07578
G1 X97.693 Y151.432 E19.97487
G1 X97.494 Y151.434 E19.99368
G1 X96.972 Y151.432 E20.04301
G1 X96.752 Y151.428 E20.0638
G1 X87.3 Y151.128 E20.95747
G1 X87.102 Y151.119 E20.9762
G1 X86.593 Y151.09 E21.02437
G1 X86.372 Y151.075 E21.04531
G1 X76.915 Y150.269 E21.94223
G1 X76.735 Y150.251 E21.95933
G1 X76.237 Y150.197 E22.00666
G1 X76.006 Y150.169 E22.02865
G1 X66.803 Y148.895 E22.90663
G1 X65.684 Y148.656 E23.01476
G1 X64.711 Y148.373 E23.11052
G1 X64.658 Y148.357 E23.11575
G1 X64.534 Y148.32 E23.12798
G1 X63.786 Y148.055 E23.20297
G1 X62.815 Y147.574 E23.30537
G1 X61.94 Y147.063 E23.40113
G1 X61.932 Y147.059 E23.40197
G1 X61.821 Y146.994 E23.41413
G1 X61.157 Y146.559 E23.48914
G1 X60.31 Y145.844 E23.59389
G1 X59.583 Y145.137 E23.68972
G1 X59.508 Y145.064 E23.69961
G1 X58.966 Y144.484 E23.77463
G1 X58.292 Y143.558 E23.88286
G1 X57.756 Y142.695 E23.97886
G1 X57.741 Y142.671 E23.98154
G1 X57.672 Y142.559 E23.99397
G1 X57.291 Y141.863 E24.06895
G1 X56.879 Y140.834 E24.1737
G1 X56.591 Y139.937 E24.26273
G1 X56.551 Y139.816 E24.27477
G1 X56.34 Y139.051 E24.34976
G1 X56.207 Y138.268 E24.42481
G1 X56.171 Y137.872 E24.46239
G1 X56.103 Y136.861 E24.55815
G1 X56.11 Y135.708 E24.66711
G1 X56.753 Y127.638 E25.43214
G1 X56.803 Y127.178 E25.47586
G1 X58.008 Y118.512 E26.30268
G1 X58.088 Y118.043 E26.34764
G1 X59.793 Y109.57 E27.16439
G1 X59.898 Y109.116 E27.20843
G1 X62.102 Y100.76 E28.02507
G1 X62.235 Y100.311 E28.06933
G1 X64.926 Y92.118 E28.88426
G1 X65.085 Y91.678 E28.92847
G1 X68.261 Y83.649 E29.74442
G1 X68.445 Y83.221 E29.78844
G1 X72.086 Y75.404 E30.60335
G1 X72.29 Y74.997 E30.64637
G1 X76.172 Y67.783 E31.42053
G1 X76.685 Y66.958 E31.51234
G1 X77.252 Y66.159 E31.60492
G1 X77.327 Y66.054 E31.61712
G1 X77.41 Y65.941 E31.63037
G1 X77.911 Y65.326 E31.70533
G0 F6000 X78.183 Y65.548
G1 F1800 X78.763 Y64.974 E31.78244
G1 X79.411 Y64.399 E31.86431
G1 X79.495 Y64.324 E31.87495
G1 X80.099 Y63.838 E31.94821
G1 X80.828 Y63.372 E32.02997
G1 X81.55 Y62.967 E32.1082
G1 X81.668 Y62.9 E32.12103
G1 X82.362 Y62.553 E32.19435
G1 X83.179 Y62.249 E32.27673
G1 X84.011 Y61.994 E32.35896
G1 X84.099 Y61.967 E32.36766
G1 X84.851 Y61.773 E32.44105
G1 X85.732 Y61.648 E32.52514
G1 X86.589 Y61.578 E32.6064
G1 X86.688 Y61.569 E32.61579
G1 X87.463 Y61.541 E32.68908
G1 X88.328 Y61.604 E32.77104
G1 X89.189 Y61.717 E32.8531
G1 X89.814 Y61.826 E32.91305
G1 X90.309 Y61.934 E32.96093
G1 X90.583 Y61.999 E32.98754
G1 X112.445 Y67.634 E35.12102
G1 X112.543 Y67.66 E35.13061
G1 X113.039 Y67.795 E35.17918
G1 X113.135 Y67.822 E35.18861
G1 X135.544 Y74.241 E37.39142
G1 X135.735 Y74.298 E37.41026
G1 X157.568 Y81.183 E39.57363
G1 X157.589 Y81.19 E39.57573
G1 X157.702 Y81.226 E39.58693
G1 X158.428 Y81.499 E39.66023
G1 X159.122 Y81.846 E39.73356
G1 X159.777 Y82.262 E39.80688
G1 X160.385 Y82.743 E39.88014
G1 X160.94 Y83.284 E39.95339
G1 X161.437 Y83.88 E40.02672
G1 X161.87 Y84.524 E40.10006
G1 X162.234 Y85.208 E40.17328
G1 X162.526 Y85.927 E40.24661
G1 X162.743 Y86.672 E40.31994
G1 X162.881 Y87.435 E40.39321
G1 X162.943 Y88.323 E40.47733
G1 X162.948 Y88.828 E40.52506
G1 X163.434 Y134.408 E44.83261
G1 X163.402 Y135.183 E44.90591
G1 X163.291 Y135.95 E44.97915
G1 X163.101 Y136.702 E45.05245
G1 X162.835 Y137.431 E45.12578
G1 X162.495 Y138.128 E45.19907
G1 X162.085 Y138.787 E45.27241
G1 X161.61 Y139.4 E45.34569
G1 X161.074 Y139.96 E45.41895
G1 X160.483 Y140.463 E45.49229
G1 X159.844 Y140.902 E45.56555
G1 X159.163 Y141.273 E45.63883
G1 X158.447 Y141.572 E45.71216
G1 X158.041 Y141.705 E45.75253
G1 X149.188 Y144.32 E46.62488
G1 X148.817 Y144.419 E46.66116
G1 X139.13 Y146.751 E47.60274
G1 X138.989 Y146.784 E47.61642
G1 X138.499 Y146.892 E47.66384
G1 X138.237 Y146.944 E47.68908
G1 X128.801 Y148.675 E48.59566
G1 X128.415 Y148.736 E48.63259
G1 X118.486 Y150.03 E49.57881
G1 X118.087 Y150.071 E49.61672
G1 X108.112 Y150.833 E50.5621
G1 X107.913 Y150.846 E50.58095
G1 X107.41 Y150.871 E50.62854
G1 X107.197 Y150.878 E50.64868
G1 X97.685 Y151.082 E51.54777
G1 X97.495 Y151.084 E51.56573
G1 X96.973 Y151.082 E51.61506
G1 X96.763 Y151.078 E51.6349
G1 X87.311 Y150.778 E52.52857
G1 X87.122 Y150.77 E52.54644
G1 X86.613 Y150.741 E52.59462
G1 X86.402 Y150.726 E52.61461
G1 X76.945 Y149.92 E53.51154
G1 X76.773 Y149.903 E53.52787
G1 X76.275 Y149.849 E53.57521
G1 X76.054 Y149.822 E53.59625
G1 X66.851 Y148.548 E54.47423
G1 X65.781 Y148.32 E54.57761
G1 X64.808 Y148.037 E54.67337
G1 X64.758 Y148.022 E54.6783
G1 X64.634 Y147.985 E54.69053
G1 X63.904 Y147.725 E54.76376
G1 X62.991 Y147.272 E54.86008
G1 X62.116 Y146.761 E54.95583
G1 X62.108 Y146.757 E54.95668
G1 X61.997 Y146.692 E54.96883
G1 X61.349 Y146.266 E55.04212
G1 X60.554 Y145.593 E55.14055
G1 X59.827 Y144.886 E55.23638
G1 X59.751 Y144.812 E55.2464
G1 X59.222 Y144.245 E55.31968
G1 X58.59 Y143.373 E55.42146
G1 X58.054 Y142.51 E55.51746
G1 X58.039 Y142.487 E55.52005
G1 X57.97 Y142.375 E55.53249
G1 X57.598 Y141.695 E55.60573
G1 X57.212 Y140.727 E55.70421
G1 X56.923 Y139.827 E55.79354
G1 X56.883 Y139.706 E55.80558
G1 X56.678 Y138.958 E55.87888
G1 X56.52 Y137.849 E55.98473
G1 X56.452 Y136.838 E56.08049
G1 X56.459 Y135.735 E56.18473
G1 X57.102 Y127.665 E56.94976
G1 X57.15 Y127.227 E56.9914
G1 X58.355 Y118.561 E57.81821
G1 X58.431 Y118.113 E57.86115
G1 X60.136 Y109.64 E58.6779
G1 X60.237 Y109.205 E58.7201
G1 X62.441 Y100.849 E59.53675
G1 X62.568 Y100.42 E59.57903
G1 X65.259 Y92.227 E60.39396
G1 X65.411 Y91.807 E60.43617
G1 X68.587 Y83.778 E61.25212
G1 X68.763 Y83.369 E61.29419
G1 X72.404 Y75.552 E62.1091
G1 X72.599 Y75.163 E62.15022
G1 X76.481 Y67.949 E62.92438
G1 X76.97 Y67.16 E63.0121
G1 X77.537 Y66.361 E63.10469
G1 X77.609 Y66.261 E63.11633
G1 X77.692 Y66.148 E63.12958
G1 X78.183 Y65.548 E63.20285
G0 F6000 X78.454 Y65.77
G1 F1800 X78.995 Y65.236 E63.27468
G1 X79.643 Y64.661 E63.35655
G1 X79.728 Y64.585 E63.36733
G1 X80.319 Y64.111 E63.43892
G1 X80.999 Y63.678 E63.5151
G1 X81.723 Y63.272 E63.59354
G1 X81.841 Y63.205 E63.60636
G1 X82.519 Y62.866 E63.678
G1 X83.281 Y62.584 E63.75478
G1 X84.113 Y62.329 E63.83701
G1 X84.204 Y62.301 E63.84601
G1 X84.938 Y62.113 E63.91761
G1 X85.761 Y61.997 E63.99616
G1 X86.627 Y61.926 E64.07827
G1 X86.718 Y61.918 E64.0869
G1 X87.475 Y61.891 E64.15848
G1 X88.283 Y61.951 E64.23505
G1 X89.144 Y62.064 E64.31711
G1 X89.739 Y62.168 E64.37419
G1 X90.234 Y62.276 E64.42207
G1 X90.496 Y62.338 E64.44751
G1 X112.358 Y67.973 E66.58099
G1 X112.451 Y67.998 E66.5901
G1 X112.947 Y68.133 E66.63867
G1 X113.039 Y68.158 E66.64768
G1 X135.448 Y74.577 E68.8505
G1 X135.63 Y74.632 E68.86847
G1 X157.463 Y81.517 E71.03184
G1 X157.483 Y81.524 E71.03384
G1 X157.596 Y81.56 E71.04505
G1 X158.304 Y81.827 E71.11656
G1 X158.981 Y82.168 E71.18819
G1 X159.617 Y82.578 E71.2597
G1 X160.207 Y83.053 E71.33128
G1 X160.744 Y83.588 E71.40291
G1 X161.221 Y84.176 E71.47446
G1 X161.633 Y84.811 E71.54599
G1 X161.977 Y85.486 E71.61759
G1 X162.247 Y86.194 E71.68919
G1 X162.441 Y86.926 E71.76075
G1 X162.557 Y87.675 E71.83238
G1 X162.593 Y88.326 E71.89399
G1 X162.598 Y88.832 E71.94181
G1 X163.084 Y134.412 E76.24937
G1 X163.052 Y135.168 E76.32087
G1 X162.94 Y135.917 E76.39244
G1 X162.75 Y136.65 E76.464
G1 X162.484 Y137.36 E76.53565
G1 X162.145 Y138.037 E76.60719
G1 X161.736 Y138.674 E76.67873
G1 X161.262 Y139.265 E76.75032
G1 X160.729 Y139.803 E76.82189
G1 X160.142 Y140.281 E76.89343
G1 X159.508 Y140.695 E76.96498
G1 X158.833 Y141.04 E77.03662
G1 X157.942 Y141.369 E77.12638
G1 X149.089 Y143.984 E77.99872
G1 X148.735 Y144.079 E78.03335
G1 X139.048 Y146.411 E78.97493
G1 X138.913 Y146.442 E78.98802
G1 X138.423 Y146.55 E79.03543
G1 X138.174 Y146.6 E79.05943
G1 X128.738 Y148.331 E79.96602
G1 X128.37 Y148.389 E80.00122
G1 X118.441 Y149.683 E80.94745
G1 X118.061 Y149.722 E80.98355
G1 X108.086 Y150.484 E81.92893
G1 X107.895 Y150.496 E81.94701
G1 X107.392 Y150.521 E81.99461
G1 X107.19 Y150.528 E82.01371
G1 X97.678 Y150.732 E82.9128
G1 X97.497 Y150.734 E82.9299
G1 X96.975 Y150.732 E82.97923
G1 X96.774 Y150.728 E82.99823
G1 X87.322 Y150.428 E83.89189
G1 X87.142 Y150.42 E83.90892
G1 X86.633 Y150.391 E83.9571
G1 X86.432 Y150.377 E83.97614
G1 X76.975 Y149.571 E84.87307
G1 X76.811 Y149.555 E84.88864
G1 X76.313 Y149.501 E84.93598
G1 X76.102 Y149.475 E84.95607
G1 X66.899 Y148.201 E85.83404
G1 X65.879 Y147.984 E85.93259
G1 X64.906 Y147.701 E86.02835
G1 X64.858 Y147.686 E86.0331
G1 X64.734 Y147.649 E86.04533
G1 X64.021 Y147.395 E86.11686
G1 X63.168 Y146.97 E86.20692
G1 X62.293 Y146.459 E86.30267
G1 X62.285 Y146.455 E86.30352
G1 X62.174 Y146.39 E86.31567
G1 X61.542 Y145.973 E86.38723
G1 X60.798 Y145.342 E86.47941
G1 X60.071 Y144.635 E86.57525
G1 X59.994 Y144.561 E86.58534
G1 X59.478 Y144.006 E86.65695
G1 X58.887 Y143.189 E86.75224
G1 X58.351 Y142.326 E86.84824
G1 X58.337 Y142.303 E86.85079
G1 X58.268 Y142.191 E86.86322
G1 X57.906 Y141.527 E86.93469
G1 X57.545 Y140.62 E87.02694
G1 X57.236 Y139.657 E87.12251
G1 X57.216 Y139.596 E87.12858
G1 X57.016 Y138.865 E87.2002
G1 X56.869 Y137.826 E87.29936
G1 X56.801 Y136.815 E87.39511
G1 X56.808 Y135.763 E87.49453
G1 X57.451 Y127.693 E88.25956
G1 X57.496 Y127.275 E88.29929
G1 X58.701 Y118.609 E89.12611
G1 X58.774 Y118.182 E89.16705
G1 X60.479 Y109.709 E89.98379
G1 X60.575 Y109.294 E90.02405
G1 X62.779 Y100.938 E90.8407
G1 X62.9 Y100.529 E90.881
G1 X65.591 Y92.336 E91.69593
G1 X65.736 Y91.936 E91.73614
G1 X68.912 Y83.907 E92.55209
G1 X69.08 Y83.517 E92.59221
G1 X72.721 Y75.7 E93.40712
G1 X72.907 Y75.329 E93.44634
G1 X76.789 Y68.115 E94.2205
G1 X77.256 Y67.363 E94.30415
G1 X77.823 Y66.564 E94.39674
G1 X77.891 Y66.469 E94.40778
G1 X77.974 Y66.356 E94.42103
G1 X78.454 Y65.77 E94.49261
G0 F6000 X78.725 Y65.992
G1 F1800 X79.227 Y65.498 E94.55917
G1 X79.875 Y64.923 E94.64104
G1 X79.961 Y64.846 E94.65195
G1 X80.538 Y64.384 E94.7218
G1 X81.17 Y63.983 E94.79253
G1 X81.928 Y63.558 E94.87465
G1 X82.014 Y63.509 E94.884
G1 X82.675 Y63.18 E94.95378
G1 X83.384 Y62.919 E95.02517
G1 X84.184 Y62.674 E95.10424
G1 X84.308 Y62.635 E95.11652
G1 X85.024 Y62.452 E95.18636
G1 X85.789 Y62.346 E95.25934
G1 X86.613 Y62.278 E95.33748
G1 X86.749 Y62.266 E95.35038
G1 X87.487 Y62.241 E95.42016
G1 X88.237 Y62.298 E95.49124
G1 X89.098 Y62.411 E95.5733
G1 X89.665 Y62.51 E95.62769
G1 X90.16 Y62.618 E95.67557
G1 X90.408 Y62.677 E95.69966
G1 X112.27 Y68.312 E97.83314
G1 X112.359 Y68.336 E97.84186
G1 X112.855 Y68.471 E97.89043
G1 X112.942 Y68.495 E97.89896
G1 X135.351 Y74.914 E100.10178
G1 X135.525 Y74.966 E100.11894
G1 X157.358 Y81.851 E102.28232
G1 X157.377 Y81.857 E102.2842
G1 X157.49 Y81.893 E102.29541
G1 X158.18 Y82.155 E102.36515
G1 X158.839 Y82.49 E102.43501
G1 X159.457 Y82.894 E102.50479
G1 X160.028 Y83.363 E102.57461
G1 X160.545 Y83.891 E102.64445
G1 X161.002 Y84.471 E102.71423
G1 X161.393 Y85.097 E102.78397
G1 X161.714 Y85.762 E102.85375
G1 X161.962 Y86.458 E102.92358
G1 X162.133 Y87.177 E102.99342
G1 X162.226 Y87.91 E103.06324
G1 X162.243 Y88.329 E103.10287
G1 X162.248 Y88.835 E103.15069
G1 X162.734 Y134.415 E107.45824
G1 X162.702 Y135.153 E107.52805
G1 X162.59 Y135.883 E107.59784
G1 X162.4 Y136.597 E107.66766
G1 X162.134 Y137.286 E107.73746
G1 X161.795 Y137.943 E107.80732
G1 X161.387 Y138.558 E107.87707
G1 X160.915 Y139.127 E107.94693
G1 X160.385 Y139.641 E108.0167
G1 X159.802 Y140.094 E108.08647
G1 X159.173 Y140.482 E108.15631
G1 X158.506 Y140.8 E108.22614
G1 X157.842 Y141.033 E108.29264
G1 X148.989 Y143.648 E109.16498
G1 X148.653 Y143.738 E109.19785
G1 X138.966 Y146.07 E110.13942
G1 X138.838 Y146.1 E110.15185
G1 X138.348 Y146.208 E110.19926
G1 X138.11 Y146.256 E110.22221
G1 X128.674 Y147.987 E111.12879
G1 X128.325 Y148.042 E111.16218
G1 X118.396 Y149.336 E112.1084
G1 X118.034 Y149.373 E112.14279
G1 X108.059 Y150.135 E113.08817
G1 X107.878 Y150.147 E113.10532
G1 X107.375 Y150.172 E113.15291
G1 X107.182 Y150.178 E113.17115
G1 X97.67 Y150.382 E114.07025
G1 X97.498 Y150.384 E114.0865
G1 X96.976 Y150.382 E114.13583
G1 X96.785 Y150.379 E114.15388
G1 X87.333 Y150.079 E115.04755
G1 X87.162 Y150.071 E115.06372
G1 X86.653 Y150.042 E115.1119
G1 X86.461 Y150.028 E115.13009
G1 X77.004 Y149.222 E116.02702
G1 X76.848 Y149.207 E116.04183
G1 X76.35 Y149.153 E116.08917
G1 X76.15 Y149.129 E116.1082
G1 X66.947 Y147.855 E116.98618
G1 X65.977 Y147.647 E117.07993
G1 X65.004 Y147.364 E117.17569
G1 X64.959 Y147.351 E117.18011
G1 X64.835 Y147.314 E117.19234
G1 X64.139 Y147.065 E117.2622
G1 X63.344 Y146.668 E117.34617
G1 X62.469 Y146.157 E117.44193
G1 X62.462 Y146.153 E117.44269
G1 X62.351 Y146.088 E117.45484
G1 X61.735 Y145.68 E117.52467
G1 X61.042 Y145.091 E117.61061
G1 X60.315 Y144.384 E117.70644
G1 X60.238 Y144.309 E117.7166
G1 X59.735 Y143.768 E117.78641
G1 X59.184 Y143.004 E117.87543
G1 X58.648 Y142.141 E117.97143
G1 X58.635 Y142.12 E117.97376
G1 X58.566 Y142.008 E117.98619
G1 X58.213 Y141.359 E118.05601
G1 X57.878 Y140.513 E118.142
G1 X57.569 Y139.55 E118.23757
G1 X57.548 Y139.486 E118.24393
G1 X57.354 Y138.773 E118.31376
G1 X57.218 Y137.802 E118.40642
G1 X57.15 Y136.791 E118.50217
G1 X57.157 Y135.791 E118.59668
G1 X57.8 Y127.721 E119.36171
G1 X57.843 Y127.323 E119.39954
G1 X59.048 Y118.657 E120.22635
G1 X59.117 Y118.251 E120.26527
G1 X60.822 Y109.778 E121.08202
G1 X60.914 Y109.383 E121.12035
G1 X63.118 Y101.027 E121.93699
G1 X63.233 Y100.638 E121.97533
G1 X65.924 Y92.445 E122.79026
G1 X66.061 Y92.065 E122.82843
G1 X69.237 Y84.036 E123.64438
G1 X69.397 Y83.664 E123.68264
G1 X73.038 Y75.847 E124.49755
G1 X73.215 Y75.495 E124.53478
G1 X77.097 Y68.281 E125.30895
G1 X77.541 Y67.565 E125.38856
G1 X78.108 Y66.766 E125.48115
G1 X78.173 Y66.676 E125.49164
G1 X78.256 Y66.563 E125.50489
G1 X78.725 Y65.992 E125.57471
G0 F6000 X78.996 Y66.215
G1 F1800 X79.459 Y65.76 E125.63606
G1 X80.107 Y65.185 E125.71793
G1 X80.195 Y65.107 E125.72904
